X:1
T:Title
%%score { 1 | 2 }
L:1/8
M:3/4
K:F
V:1 treble nm="Grand Piano"
V:2 bass 
V:1
 z2 z2[Q:1/4=100] CC | F3 C FG | A2 c2 [Fd][Fd] | c3 A GF |[M:2/4] [EG]4 |[M:1/4] AG | %6
[M:3/4] F3 C FG | A2 c2 [Fd][Fd] | [Fc]3 [CFA] [B,EG][CEA] | [A,F]6 |] %10
V:2
 z2 z2 [F,A,][F,A,] | [F,A,C]3 [F,A,] [F,A,C][F,B,C] | [F,CF]2 [F,A,F]2 [B,,B,][B,,B,] | %3
 [F,A,F]3 [F,CF] [E,C][D,=B,D] |[M:2/4] [C,C]4 |[M:1/4] [F,CF][F,B,F] | %6
[M:3/4] [F,A,C]3 [F,A,] [F,A,C][F,B,C] | [F,CF]2 [F,A,F]2 [B,,B,][B,,B,] | [C,A,]3 C, C,C, | F,6 |] %10

